neru-light-red-classic/32x32/places/folder-visiting.svg

<?xml version="1.0" encoding="UTF-8" standalone="no"?>
<svg
   xmlns:dc="http://purl.org/dc/elements/1.1/"
   xmlns:cc="http://creativecommons.org/ns#"
   xmlns:rdf="http://www.w3.org/1999/02/22-rdf-syntax-ns#"
   xmlns:svg="http://www.w3.org/2000/svg"
   xmlns="http://www.w3.org/2000/svg"
   xmlns:xlink="http://www.w3.org/1999/xlink"
   xmlns:sodipodi="http://sodipodi.sourceforge.net/DTD/sodipodi-0.dtd"
   xmlns:inkscape="http://www.inkscape.org/namespaces/inkscape"
   width="32"
   height="32"
   version="1"
   id="svg14"
   sodipodi:docname="folder-visiting.svg"
   inkscape:version="1.0.1 (3bc2e813f5, 2020-09-07)">
  <metadata
     id="metadata20">
    <rdf:RDF>
      <cc:Work
         rdf:about="">
        <dc:format>image/svg+xml</dc:format>
        <dc:type
           rdf:resource="http://purl.org/dc/dcmitype/StillImage" />
        <dc:title />
      </cc:Work>
    </rdf:RDF>
  </metadata>
  <defs
     id="defs18">
    <linearGradient
       id="linearGradient990"
       inkscape:collect="always">
      <stop
         id="stop986"
         offset="0"
         style="stop-color:#db1424;stop-opacity:1" />
      <stop
         id="stop988"
         offset="1"
         style="stop-color:#ee4730;stop-opacity:1" />
    </linearGradient>
    <linearGradient
       inkscape:collect="always"
       id="linearGradient889">
      <stop
         style="stop-color:#8998ad;stop-opacity:1"
         offset="0"
         id="stop885" />
      <stop
         style="stop-color:#f3dcd4;stop-opacity:1"
         offset="1"
         id="stop887" />
    </linearGradient>
    <linearGradient
       inkscape:collect="always"
       xlink:href="#linearGradient990"
       id="linearGradient975"
       x1="-5.667089"
       y1="22.200636"
       x2="-5.5973864"
       y2="10.717914"
       gradientUnits="userSpaceOnUse"
       gradientTransform="matrix(1.8471453,0,0,1.9122993,26.881076,-14.456689)" />
    <linearGradient
       inkscape:collect="always"
       xlink:href="#linearGradient889"
       id="linearGradient891-3-3"
       x1="-34.169491"
       y1="21.288134"
       x2="-13.152548"
       y2="7.4576306"
       gradientUnits="userSpaceOnUse"
       gradientTransform="matrix(1.2272405,0,0,1.5527586,46.26793,-6.9461714)" />
  </defs>
  <sodipodi:namedview
     pagecolor="#ffffff"
     bordercolor="#666666"
     borderopacity="1"
     objecttolerance="10"
     gridtolerance="10"
     guidetolerance="10"
     inkscape:pageopacity="0"
     inkscape:pageshadow="2"
     inkscape:window-width="1920"
     inkscape:window-height="1027"
     id="namedview16"
     showgrid="false"
     inkscape:zoom="26.75"
     inkscape:cx="16"
     inkscape:cy="16"
     inkscape:window-x="0"
     inkscape:window-y="27"
     inkscape:window-maximized="1"
     inkscape:current-layer="g834"
     showguides="true"
     inkscape:guide-bbox="true"
     inkscape:snap-global="true"
     inkscape:snap-bbox="true"
     inkscape:document-rotation="0" />
  <g
     id="g834"
     transform="translate(9.9970075e-4,8.2899925e-4)">
    <path
       inkscape:connector-curvature="0"
       d="m 19.993088,2.1391705 c -2.39087,0 -3.166896,1.9512996 -4.394979,3.8999983 H 4.13978 c -1.7391529,0 -3.1392677,1.4495 -3.1392677,3.2499997 v 1.3000005 11.049997 1.949998 1.137501 0.162507 c 0.0076,0.180693 0.0452,0.3562 0.079111,0.527801 0.1494339,0.898298 0.644175,1.665299 1.3737426,2.152797 0.3478302,0.232701 0.7496567,0.401702 1.1778524,0.487501 0.2134674,0.04549 0.4005666,0.0819 0.62785,0.0819 H 27.882695 c 0.227284,0 0.414383,-0.0351 0.627854,-0.0819 0.42694,-0.0858 0.828767,-0.2548 1.176599,-0.487501 0.729564,-0.487498 1.223057,-1.254499 1.373741,-2.152797 0.0339,-0.171592 0.07032,-0.348401 0.07911,-0.527801 V 24.726665 23.589164 5.5516683 c 0,-1.9005998 -1.442807,-3.4124978 -3.257305,-3.4124978 H 19.9956 Z"
       style="opacity:1;fill:#db1424;fill-opacity:1;stroke:#ee4730;stroke-width:0.1;stroke-miterlimit:4;stroke-dasharray:none;stroke-opacity:1"
       id="path25-2" />
    <rect
       style="opacity:0.647;vector-effect:none;fill:#972c35;fill-opacity:1;fill-rule:nonzero;stroke:none;stroke-width:0.200383;stroke-linecap:butt;stroke-linejoin:miter;stroke-miterlimit:4;stroke-dasharray:none;stroke-dashoffset:0;stroke-opacity:1;paint-order:markers stroke fill"
       id="rect883-5-5-8"
       width="25.79285"
       height="21.475441"
       x="4.4335961"
       y="4.6337156"
       transform="matrix(0.99999999,1.0483019e-4,-6.5484411e-5,1,0,0)"
       inkscape:transform-center-x="4.5837926"
       inkscape:transform-center-y="-6.389833"
       ry="1.7347755" />
    <rect
       style="opacity:1;vector-effect:none;fill:url(#linearGradient891-3-3);fill-opacity:1;fill-rule:nonzero;stroke:none;stroke-width:0.200383;stroke-linecap:butt;stroke-linejoin:miter;stroke-miterlimit:4;stroke-dasharray:none;stroke-dashoffset:0;stroke-opacity:1;paint-order:markers stroke fill"
       id="rect883-5-5"
       width="25.79285"
       height="21.475441"
       x="4.333746"
       y="4.6337266"
       transform="matrix(0.99999999,1.0483019e-4,-6.5484411e-5,1,0,0)"
       inkscape:transform-center-x="4.5837926"
       inkscape:transform-center-y="-6.389833"
       ry="1.7347755" />
    <path
       inkscape:connector-curvature="0"
       d="m 12.146913,2.1391705 c 2.39087,0 3.166896,1.9512996 4.394979,3.8999983 h 11.458327 c 1.739153,0 3.139268,1.4495 3.139268,3.2499997 v 1.3000005 11.049995 1.949998 1.137501 0.162507 c -0.0076,0.180693 -0.0452,0.3562 -0.07911,0.527801 -0.149434,0.898298 -0.644177,1.665299 -1.373744,2.152797 -0.34783,0.232701 -0.749656,0.401702 -1.177853,0.487501 -0.213466,0.04549 -0.400565,0.0819 -0.62785,0.0819 H 4.2573048 c -0.2272835,0 -0.4143826,-0.03509 -0.627854,-0.0819 -0.4269397,-0.0858 -0.8287662,-0.2548 -1.1765984,-0.487501 C 1.7232878,27.08227 1.2297947,26.315269 1.0791108,25.416971 1.0452205,25.24538 1.0087903,25.06857 1.0000003,24.88917 V 24.726663 23.589162 5.5516683 c 0,-1.9005998 1.442807,-3.4124978 3.2573045,-3.4124978 h 7.8870962 z"
       style="opacity:1;fill:url(#linearGradient975);fill-opacity:1;stroke:#ee4730;stroke-width:0.1;stroke-miterlimit:4;stroke-dasharray:none;stroke-opacity:1"
       id="path25" />
    <g
       id="g838">
      <path
         style="opacity:0.647;fill:#972c35;fill-opacity:1;stroke:#f3dcd4;stroke-width:0.00999987;stroke-miterlimit:4;stroke-dasharray:none;stroke-opacity:1"
         d="m 0.99184617,8.5566501 c 0.0166,0.02907 0.005,1.6847879 0.005,1.6847879 L 29.87301,27.504884 c 1.290939,-0.997856 1.279242,-2.675609 1.279242,-2.675609 L 31.147152,24.148696 4.0955434,8.5424151 Z M 9.8761236,8.5424201 31.146768,21.036629 V 17.520781 L 15.655419,8.5424201 Z m 11.5596974,0 9.710948,5.6313519 V 10.836276 L 27.216226,8.5424201 Z M 0.99649607,13.301708 v 3.360836 l 18.62362693,11.521622 5.517412,5e-6 z m 0.009,6.974463 -0.009,3.126307 7.68727743,4.781688 5.1844095,-5e-6 z"
         id="path14-3"
         inkscape:connector-curvature="0"
         sodipodi:nodetypes="ccccccccccccccccccccccccccc" />
      <path
         style="fill:#f3dcd4;fill-opacity:1;stroke:none;stroke-width:0.01;stroke-miterlimit:4;stroke-dasharray:none;stroke-opacity:1"
         d="m 0.98984751,8.5616557 c 0.016623,0.029066 0.00465,1.6847873 0.00465,1.6847873 L 29.871386,27.509889 C 31.162357,26.512033 31.15066,24.83428 31.15066,24.83428 L 31.145525,24.153701 4.0932404,8.5474208 Z M 9.8743446,8.5474208 31.145526,21.041629 V 17.525781 L 15.653785,8.5474208 Z m 11.5599904,0 9.711192,5.6313512 V 10.841276 L 27.214885,8.5474208 Z M 0.99449783,13.306708 v 3.360836 l 18.62409417,11.521622 5.51755,5e-6 z m 0.009102,6.974463 -0.009102,3.126307 7.68747367,4.781688 5.1845405,-5e-6 z"
         id="path14"
         inkscape:connector-curvature="0"
         sodipodi:nodetypes="ccccccccccccccccccccccccccc" />
    </g>
    <path
       style="fill:none;fill-opacity:1;stroke:#f3dcd4;stroke-width:0.1;stroke-linecap:butt;stroke-linejoin:miter;stroke-miterlimit:4;stroke-dasharray:none;stroke-opacity:1"
       d="M 0.98984751,8.5616557 31.036908,8.5325043"
       id="path827"
       inkscape:connector-curvature="0" />
  </g>
</svg>

<svg xmlns="http://www.w3.org/2000/svg" xmlns:xlink="http://www.w3.org/1999/xlink" width="32" height="32" version="1"><defs><linearGradient id="a"><stop offset="0" stop-color="#db1424"/><stop offset="1" stop-color="#ee4730"/></linearGradient><linearGradient id="b"><stop offset="0" stop-color="#8998ad"/><stop offset="1" stop-color="#f3dcd4"/></linearGradient><linearGradient xlink:href="#a" id="d" x1="-5.667" y1="22.201" x2="-5.597" y2="10.718" gradientUnits="userSpaceOnUse" gradientTransform="matrix(1.84715 0 0 1.9123 26.881 -14.457)"/><linearGradient xlink:href="#b" id="c" x1="-34.169" y1="21.288" x2="-13.153" y2="7.458" gradientUnits="userSpaceOnUse" gradientTransform="matrix(1.22724 0 0 1.55276 46.268 -6.946)"/></defs><g transform="translate(.001)"><path d="M19.993 2.14c-2.39 0-3.167 1.95-4.395 3.9H4.14C2.4 6.04 1 7.488 1 9.29V24.888c.008.18.046.356.08.528a3.195 3.195 0 0 0 2.551 2.64c.214.046.4.082.628.082h23.624c.227 0 .414-.035.628-.082a3.199 3.199 0 0 0 2.55-2.64c.034-.172.07-.348.079-.528V5.552c0-1.9-1.443-3.413-3.257-3.413h-7.887z" fill="#db1424" stroke="#ee4730" stroke-width=".1"/><rect width="25.793" height="21.475" x="4.434" y="4.634" transform="rotate(.008) skewX(.002)" ry="1.735" opacity=".647" fill="#972c35" paint-order="markers stroke fill"/><rect width="25.793" height="21.475" x="4.334" y="4.634" transform="rotate(.008) skewX(.002)" ry="1.735" fill="url(#c)" paint-order="markers stroke fill"/><path d="M12.147 2.14c2.39 0 3.167 1.95 4.395 3.9H28c1.74 0 3.14 1.449 3.14 3.25V24.888c-.008.18-.046.356-.08.528a3.195 3.195 0 0 1-2.551 2.64c-.214.046-.4.082-.628.082H4.257c-.227 0-.414-.035-.628-.082a3.199 3.199 0 0 1-2.55-2.64c-.034-.172-.07-.348-.079-.528V5.552c0-1.9 1.443-3.413 3.257-3.413h7.887z" fill="url(#d)" stroke="#ee4730" stroke-width=".1"/><path d="M.992 8.557c.016.029.005 1.684.005 1.684l28.876 17.264c1.29-.998 1.28-2.676 1.28-2.676l-.006-.68L4.096 8.542zm8.884-.015l21.27 12.495V17.52l-15.49-8.979zm11.56 0l9.71 5.632v-3.338l-3.93-2.294zm-20.44 4.76v3.36L19.62 28.185h5.518zm.01 6.974l-.01 3.126 7.688 4.782h5.184z" opacity=".647" fill="#972c35" stroke="#f3dcd4" stroke-width=".01"/><path d="M.99 8.562c.016.029.004 1.684.004 1.684L29.871 27.51c1.291-.998 1.28-2.676 1.28-2.676l-.005-.68L4.093 8.547zm8.884-.015l21.272 12.495v-3.516L15.654 8.547zm11.56 0l9.712 5.632V10.84l-3.931-2.294zm-20.44 4.76v3.36L19.62 28.19h5.517zm.01 6.974l-.01 3.126 7.688 4.782h5.185z" fill="#f3dcd4"/><path d="M.99 8.562l30.047-.03" fill="none" stroke="#f3dcd4" stroke-width=".1"/></g></svg>
